src/assets/media/icon_chevron_left.svg

<svg width="24" height="24" viewBox="0 0 24 24" fill="none" xmlns="http://www.w3.org/2000/svg">
    <path d="M5.61035 12.0068C5.61589 11.8132 5.65462 11.6361 5.72656 11.4756C5.7985 11.3151 5.90918 11.1602 6.05859 11.0107L14.376 2.95898C14.6139 2.72103 14.9072 2.60205 15.2559 2.60205C15.4883 2.60205 15.6986 2.65739 15.8867 2.76807C16.0804 2.87874 16.2326 3.02816 16.3433 3.21631C16.4595 3.40446 16.5176 3.61475 16.5176 3.84717C16.5176 4.19027 16.3875 4.49186 16.1274 4.75195L8.60693 11.9985L16.1274 19.2534C16.3875 19.519 16.5176 19.8206 16.5176 20.1582C16.5176 20.3962 16.4595 20.6092 16.3433 20.7974C16.2326 20.9855 16.0804 21.1349 15.8867 21.2456C15.6986 21.3618 15.4883 21.4199 15.2559 21.4199C14.9072 21.4199 14.6139 21.2982 14.376 21.0547L6.05859 13.0029C5.90365 12.8535 5.7902 12.6986 5.71826 12.5381C5.64632 12.3721 5.61035 12.195 5.61035 12.0068Z"
          fill="#344054"/>
</svg>

<svg width="24" height="24" fill="none" xmlns="http://www.w3.org/2000/svg">
    <path d="M5.61 12.007c.006-.194.045-.37.117-.531.071-.16.182-.316.332-.465l8.317-8.052c.238-.238.531-.357.88-.357.232 0 .443.055.63.166.194.11.347.26.457.448a1.242 1.242 0 0 1-.216 1.536l-7.52 7.247 7.52 7.254c.26.266.39.568.39.905 0 .238-.058.451-.174.64-.11.188-.263.337-.456.448a1.176 1.176 0 0 1-.631.174c-.349 0-.642-.122-.88-.365l-8.317-8.052a1.514 1.514 0 0 1-.34-.465 1.322 1.322 0 0 1-.109-.531z"
          fill="#344054"/>
</svg>
